packages/core/src/svgs/pinksale.svg

<svg width="24" height="24" viewBox="0 0 24 24" fill="none" xmlns="http://www.w3.org/2000/svg">
<g clip-path="url(#clip0_31_15969)">
<path d="M0 0H24V24H0V0Z" fill="#FDEAF1"/>
<path d="M18.2356 7.90728L17.7856 6.42871L17.3356 7.90728L15.8571 8.35728L17.3356 8.80728L17.7856 10.2859L18.2356 8.80728L19.7142 8.35728L18.2356 7.90728ZM7.28564 8.46443C7.28564 8.28871 7.4185 8.143 7.58564 8.143H9.98564C10.1528 8.143 10.2856 8.28871 10.2856 8.46443C10.2856 8.64014 10.1528 8.78585 9.98564 8.78585H7.58564C7.4185 8.78585 7.28564 8.64014 7.28564 8.46443ZM12.8571 8.46443C12.8571 8.28871 12.9899 8.143 13.1571 8.143H15.5571C15.7242 8.143 15.8571 8.28871 15.8571 8.46443C15.8571 8.64014 15.7242 8.78585 15.5571 8.78585H13.1571C12.9899 8.78585 12.8571 8.64014 12.8571 8.46443ZM8.14279 10.063C8.14279 9.71157 8.42993 9.42871 8.78564 9.42871C9.14136 9.42871 9.4285 9.71157 9.4285 10.063V12.223C9.42625 12.392 9.35753 12.5533 9.23721 12.672C9.11689 12.7907 8.95467 12.8573 8.78564 12.8573C8.61662 12.8573 8.4544 12.7907 8.33408 12.672C8.21376 12.5533 8.14504 12.392 8.14279 12.223V10.063ZM13.7142 10.063C13.7142 9.71157 14.0014 9.42871 14.3571 9.42871C14.7128 9.42871 14.9999 9.71157 14.9999 10.063V12.223C14.9977 12.392 14.929 12.5533 14.8086 12.672C14.6883 12.7907 14.5261 12.8573 14.3571 12.8573C14.1881 12.8573 14.0258 12.7907 13.9055 12.672C13.7852 12.5533 13.7165 12.392 13.7142 12.223V10.063ZM6.85707 12.4287C6.85707 12.7697 6.72161 13.0967 6.4805 13.3378C6.23938 13.579 5.91235 13.7144 5.57136 13.7144C5.23037 13.7144 4.90334 13.579 4.66222 13.3378C4.4211 13.0967 4.28564 12.7697 4.28564 12.4287C4.28564 12.0877 4.4211 11.7607 4.66222 11.5196C4.90334 11.2785 5.23037 11.143 5.57136 11.143C5.91235 11.143 6.23938 11.2785 6.4805 11.5196C6.72161 11.7607 6.85707 12.0877 6.85707 12.4287ZM17.5714 13.7144C17.9124 13.7144 18.2394 13.579 18.4805 13.3378C18.7216 13.0967 18.8571 12.7697 18.8571 12.4287C18.8571 12.0877 18.7216 11.7607 18.4805 11.5196C18.2394 11.2785 17.9124 11.143 17.5714 11.143C17.2304 11.143 16.9033 11.2785 16.6622 11.5196C16.4211 11.7607 16.2856 12.0877 16.2856 12.4287C16.2856 12.7697 16.4211 13.0967 16.6622 13.3378C16.9033 13.579 17.2304 13.7144 17.5714 13.7144ZM14.4856 15.5744C14.6142 15.7501 14.5971 16.0159 14.4428 16.1616C14.0571 16.5216 13.0028 17.143 11.4942 17.143C9.99422 17.143 9.01707 16.5216 8.6785 16.1359C8.53279 15.973 8.53707 15.7073 8.6785 15.5487C8.71069 15.5108 8.75074 15.4803 8.79589 15.4594C8.84103 15.4385 8.89018 15.4277 8.93993 15.4277C8.98968 15.4277 9.03883 15.4385 9.08397 15.4594C9.12912 15.4803 9.16917 15.5108 9.20136 15.5487C9.38136 15.7544 10.1528 16.3116 11.4942 16.3116C12.8356 16.3116 13.7228 15.7544 13.9628 15.5273C13.9983 15.492 14.0411 15.465 14.0881 15.448C14.1352 15.431 14.1854 15.4246 14.2352 15.4291C14.285 15.4336 14.3333 15.4489 14.3765 15.474C14.4198 15.4991 14.457 15.5334 14.4856 15.5744Z" fill="#F95192"/>
</g>
<defs>
<clipPath id="clip0_31_15969">
<rect width="24" height="24" fill="white"/>
</clipPath>
</defs>
</svg>

<svg xmlns="http://www.w3.org/2000/svg" width="24" height="24" fill="none" viewBox="0 0 24 24"><g clip-path="url(#a)"><path fill="#FDEAF1" d="M0 0h24v24H0z"/><path fill="#F95192" d="m18.236 7.907-.45-1.478-.45 1.478-1.479.45 1.479.45.45 1.479.45-1.479 1.478-.45zm-10.95.557c0-.175.133-.321.3-.321h2.4c.167 0 .3.146.3.321s-.133.322-.3.322h-2.4c-.168 0-.3-.146-.3-.322m5.571 0c0-.175.133-.321.3-.321h2.4c.167 0 .3.146.3.321s-.133.322-.3.322h-2.4c-.167 0-.3-.146-.3-.322m-4.714 1.599c0-.351.287-.634.643-.634.355 0 .643.283.643.634v2.16a.643.643 0 0 1-1.286 0zm5.571 0c0-.351.287-.634.643-.634s.643.283.643.634v2.16a.642.642 0 0 1-1.286 0zm-6.857 2.366a1.286 1.286 0 1 1-2.571 0 1.286 1.286 0 0 1 2.571 0m10.714 1.285a1.285 1.285 0 1 0 0-2.57 1.285 1.285 0 0 0 0 2.57m-3.085 1.86a.46.46 0 0 1-.043.588c-.386.36-1.44.981-2.949.981-1.5 0-2.477-.621-2.815-1.007a.454.454 0 0 1 0-.587.343.343 0 0 1 .522 0c.18.205.952.763 2.293.763s2.229-.558 2.469-.785a.343.343 0 0 1 .523.047"/></g><defs><clipPath id="a"><path fill="#fff" d="M0 0h24v24H0z"/></clipPath></defs></svg>
